X:4
T:GB/6a/4 American King
%%VWML:GB-6a-4-0
F:http://www.vwml.org/record/GB/6a/4
C:Transcribed by Simon Furey and Lewis Jones
L:1/8
M:3/4
I:linebreak $
K:G
GA | B2 B2 cB | A2 A2 BA | G2 E2 F2 | G4 GA | B2 B2 cB | A2 A2 BA | G2 E2 F2 |$ G4 GB | d2 d2 ed |
dB G2 GB | d2 B2 d2 | A4 GA | B3 d cB | AG E2 GE | D2 G2 A2 | G6 |]

